remix/Document/folder-unknow-line.svg

<svg viewBox="0 0 24 24" fill="currentColor" xmlns="http://www.w3.org/2000/svg"><path d="M12.4142 5H21C21.5523 5 22 5.44772 22 6V20C22 20.5523 21.5523 21 21 21H3C2.44772 21 2 20.5523 2 20V4C2 3.44772 2.44772 3 3 3H10.4142L12.4142 5ZM4 5V19H20V7H11.5858L9.58579 5H4ZM11 16H13V18H11V16ZM8.56731 10.8135C8.88637 9.20919 10.302 8 12 8C13.933 8 15.5 9.567 15.5 11.5C15.5 13.433 13.933 15 12 15H11V13H12C12.8284 13 13.5 12.3284 13.5 11.5C13.5 10.6716 12.8284 10 12 10C11.2723 10 10.6656 10.5182 10.5288 11.2058L8.56731 10.8135Z"/></svg>

<svg viewBox="0 0 24 24" xmlns="http://www.w3.org/2000/svg"><path fill="none" d="M0 0h24v24H0Z"/><path d="M12.414 5H21v0c.55 0 1 .44 1 1v14 0c0 .55-.45 1-1 1H3v0c-.56 0-1-.45-1-1V4v0c0-.56.44-1 1-1h7.414l2 2ZM4 5v14h16V7h-8.414l-2-2H4Zm7 11h2v2h-2v-2Zm-2.433-5.19v0c.37-1.9 2.22-3.13 4.11-2.75 1.89.37 3.12 2.22 2.74 4.11 -.33 1.63-1.77 2.81-3.44 2.81h-1v-2h1 -.001c.82-.01 1.49-.68 1.49-1.51 -.01-.83-.68-1.5-1.51-1.5 -.72 0-1.34.5-1.48 1.2l-1.97-.4Z"/></svg>
